icon-themes/breeze_svg/cmd/lc_crookslant.svg

<svg viewBox="0 0 24 24" xmlns="http://www.w3.org/2000/svg"><path d="m4 4v.0136719 13.9863281c8 0 9.940373.7218 16 2v-14c-5.622365-1.6223-8-2-16-2zm1 1.0449219c6-.044 9.916274.62975 14 1.84375v11.7539061c-4.150999-.9871-6-1.641656-14-1.597656zm3.2246094 3.7304687-2 2.0000004 2 2v-1c3.3175156 0 5.5918946.2271 7.9999996 1v1l2-2-2-2.0000004v1.0000004c-2.052999-.6708-5-1.0000004-7.9999996-1.0000004z" fill="#4d4d4d"/></svg>

<svg xmlns="http://www.w3.org/2000/svg" viewBox="0 0 24 24">
 <path 
     style="fill:#4d4d4d" 
     d="M 4 4 L 4 4.0136719 L 4 18 C 12 18 13.940373 18.7218 20 20 L 20 6 C 14.377635 4.3777 12 4 4 4 z M 5 5.0449219 C 11 5.0009219 14.916274 5.6746719 19 6.8886719 L 19 18.642578 C 14.849001 17.655478 13 17.000922 5 17.044922 L 5 5.0449219 z M 8.2246094 8.7753906 L 6.2246094 10.775391 L 8.2246094 12.775391 L 8.2246094 11.775391 C 11.542125 11.775391 13.816504 12.002491 16.224609 12.775391 L 16.224609 13.775391 L 18.224609 11.775391 L 16.224609 9.7753906 L 16.224609 10.775391 C 14.17161 10.104591 11.224609 9.7753906 8.2246094 9.7753906 L 8.2246094 8.7753906 z "
     />
 </svg>
